dist/icons/svgs/merge-outline.svg

<svg xmlns="http://www.w3.org/2000/svg" width="24" height="24" fill="currentcolor" class="icon-merge-outline" viewBox="0 0 24 24">
  <path d="M2 5.4375C2 4.92969 2.39062 4.5 2.9375 4.5H5.75H7.625C8.28906 4.5 8.95312 4.85156 9.34375 5.39844L13.6016 10.9453C13.6797 11.0234 13.7578 11.0625 13.8359 11.0625H18.7969L17.2734 9.53906C16.8828 9.1875 16.8828 8.60156 17.2734 8.25C17.625 7.85938 18.2109 7.85938 18.6016 8.25L21.7266 11.375C22.0781 11.7266 22.0781 12.3125 21.7266 12.6641L18.6016 15.7891C18.2109 16.1797 17.625 16.1797 17.2734 15.7891C16.8828 15.4375 16.8828 14.8516 17.2734 14.5L18.7969 12.9766H13.8359C13.7578 12.9766 13.6406 13.0156 13.6016 13.0938L9.34375 18.6406C8.95312 19.1875 8.28906 19.5 7.625 19.5H5.75H2.9375C2.39062 19.5 2 19.1094 2 18.5625C2 18.0547 2.39062 17.625 2.9375 17.625H5.75H7.625C7.70312 17.625 7.82031 17.5859 7.85938 17.5078L12.0391 12L7.85938 6.53125C7.82031 6.45312 7.70312 6.375 7.625 6.375H5.75H2.9375C2.39062 6.375 2 5.98438 2 5.4375Z"/>
</svg>

<svg xmlns="http://www.w3.org/2000/svg" width="24" height="24" fill="currentColor" class="icon-merge-outline" viewBox="0 0 24 24">
  <path d="M2 5.438c0-.508.39-.938.938-.938h4.687c.664 0 1.328.352 1.719.898l4.258 5.547q.117.117.234.117h4.96L17.274 9.54a.856.856 0 0 1 0-1.289c.352-.39.938-.39 1.329 0l3.125 3.125a.92.92 0 0 1 0 1.29l-3.125 3.124c-.391.39-.977.39-1.329 0a.856.856 0 0 1 0-1.289l1.524-1.523h-4.961c-.078 0-.195.039-.234.117L9.344 18.64c-.39.547-1.055.859-1.719.859H2.938c-.547 0-.938-.39-.938-.937 0-.508.39-.938.938-.938h4.687c.078 0 .195-.04.234-.117L12.04 12 7.86 6.531c-.039-.078-.156-.156-.234-.156H2.938c-.547 0-.938-.39-.938-.937"/>
</svg>
